X: 1
T: Thomas Glover's Reel
T: 8x32R 3C (Drewry 2005/ Cherry Blossom)
T: Set, cast; diag R3; LHA, RHA; Reel3
P: Let There Be Drams
C: John McCusker, from Battlefield Band "New Spring"
C: Arr. T. Traub 3-3-2015
R: reel
M: 4/4
K: A
L: 1/8
|:E| "A"EAAG ABBA |"D"dcBd "A"cBAc|"E"BcBA "D"F3 A|"E"BcBA AGFG|"A"EAAG ABBA |
"D"dcde fg (3agf|"A"ecAc "E"dBGE|"D"FAAG "A"A2-A :||: f|"Bm"fbba b2 ba|"D"fbba "E"fecd|"A"eaag aAce|
"A"a2 ga fece|"D"f2 af "A"egae|"D"dcde "A"c2 BA|"D"FA A/A/A "A"cAFE|"E"FAAG "A"A2-A :|